!!!!SEGMENT: pl-kk--kk-i-62--002_anonim--ut-detur-ex-agni-throno.krn
!!!cenid: 17xx:2257
!!!COM: Anonim
!!!COM-rismID: pe30004985
!!!CDT:
!!!CNT:
!!!OTL: Ut detur ex Agni throno
!!!PDT:
!!!AGN:
!!!SMS-siglum: PL-Kk
!!!SMS-shelfmark: Kk.I.62
!!!SMS-shelfwork: 001 W
!!!SMS-variant: Canto. PL-Kk Kk.I.62:0006
!!!SMS-altvar: Alto. PL-Kk Kk.I.62:0013
!!!NIFC-rismSourceID: 1001157165
!!!NIFC-rismChildID: 1001157168
!!!NIFC-islandoraID: pl-kk:15700
!!!URL-pdf-islandora: https://repozytorium.nifc.pl/islandora/object/pl-kk%3A15700/datastream/PDF/view
!!!URL-scan: https://polish.musicsources.pl/pl/lokalizacje/galeria/rekopisy/7253/1 @EN{Scan on Polish Music Sources Website} @PL{Skany w portalu Dziedzictwo Muzyki Polskiej w otwartym dostępie}
!!!IIIF:
!!!ONB-nifc: UWAGA: w zbiorze: 001 – Missa i 002 – Ut detus ex Agni throno. Części Mszy (001): 1. Kyrie, 2. Gloria, 3. Credo, 4. Sanctus, 5. Benedictus, 6. Agnus Dei, 7. Dona nobis.
!!!AIN: 1 alto 1 bass 1 cbass 1 empty 1 tenor 1 vox
!!!key:
**kern	**kern	**kern	**text	**dynam	**kern	**text	**dynam	**kern	**text	**dynam	**kern	**text	**dynam
*part6	*part5	*part4	*part4	*part4	*part3	*part3	*part3	*part2	*part2	*part2	*part1	*part1	*part1
*staff6	*staff5	*staff4	*staff4	*	*staff3	*staff3	*	*staff2	*staff2	*	*staff1	*staff1	*
*>[A,B,B,C]	*>[A,B,B,C]	*>[A,B,B,C]	*>[A,B,B,C]	*>[A,B,B,C]	*>[A,B,B,C]	*	*	*>[A,B,B,C]	*>[A,B,B,C]	*>[A,B,B,C]	*>[A,B,B,C]	*>[A,B,B,C]	*>[A,B,B,C]
*>A	*>A	*>A	*>A	*>A	*>A	*>A	*>A	*>A	*>A	*>A	*>A	*>A	*>A
*Ibass	*Icbass	*Iempty	*	*	*Itenor	*	*	*Ialto	*	*	*Ivox	*	*
*I"Baſso Accompagnato.	*I"Contra Baſso.	*I"Baſso.	*	*	*I"Tenore	*	*	*I"Alto.	*	*	*I"Canto.	*	*
*I'b acc	*I'cb	*I'B	*	*	*I'T	*	*	*I'A	*	*	*I'S	*	*
*clefF4	*clefF4	*clefF4	*	*	*clefC4	*	*	*clefC3	*	*	*clefC1	*	*
*	*Trd0c0	*	*	*	*	*	*	*	*	*	*	*	*
*k[b-e-a-]	*k[b-e-a-]	*k[b-e-a-]	*	*	*k[b-e-a-]	*	*	*k[b-e-a-]	*	*	*k[b-e-a-]	*	*
*E-:	*E-:	*E-:	*	*	*E-:	*	*	*E-:	*	*	*E-:	*	*
*M3/4	*M3/4	*M3/4	*	*	*M3/4	*	*	*M3/4	*	*	*M3/4	*	*
*all\right	*	*	*	*	*	*	*	*	*	*	*	*	*
=1	=1	=1	=1	=1	=1	=1	=1	=1	=1	=1	=1	=1	=1
!	!	!	!	!	!	!	!	!	!	!	!LO:TX:t=P:problem=uwzględniamy w pliku partię b acc wpisaną ołówkiem, kreski uznajemy za współczesne [konsultacja z E.Z.]	!	!
!LO:TX:t=P:problem=kolejność znaków BB- E- A-	!	!LO:TX:t=P:problem=kolejność znaków BB- A- E-	!	!	!	!	!	!LO:TX:t=P:problem=kolejność znaków&colon; B- a- e-	!	!	!LO:TX:t=P:problem=kolejność znaków b- ee- a-	!	!
!LO:TX:t=P:problem=partia wpisana ołówkiem	!LO:TX:a:t=[Tacet]	!LO:TX:a:Bi:t=lento Dolce.	!	!LO:DY:b:rj	!LO:TX:a:Bi:t=lento Dolce.	!	!LO:DY:b:rj	!LO:TX:a:i:t=Dolce	!	!LO:DY:b:rj	!LO:TX:a:Bi:t=lento Dolce	!	!LO:DY:b:rj
4E-\	2.ryy	4E-\	Ut	p	4B-\	Ut	p	4g\	Ut	p	4b-\	Ut	p
4E-\	.	4E-\	de-	.	4B-\	de-	.	4g\	de-	.	4b-\	de-	.
8.E-\	.	8E-\	-tur	.	8B-\	-tur	.	8g\	-tur	.	8b-\	-tur	.
!	!	!	!	!	!	!	!	!	!	!	!	!	!LO:DY:b:rj:t=fo.
.	.	16.r	.	.	16.r	.	.	16.r	.	.	16.r	.	f
16E-\	.	.	.	.	.	.	.	.	.	.	.	.	.
.	.	32E-\	ex	.	32F/	ex	.	32a-\	ex	.	32cc\	ex	.
=2	=2	=2	=2	=2	=2	=2	=2	=2	=2	=2	=2	=2	=2
4D/	2.ryy	(4D/	A-	.	2A-/	A-	.	(4g\	A-	.	(4b-/	A-	.
4BB-/	.	4BB-/)	.	.	.	.	.	4f\)	.	.	4a-/)	.	.
4E-\	.	4E-\	-gni	.	4B-\	-gni	.	4e-\	-gni	.	4g/	-gni	.
=3	=3	=3	=3	=3	=3	=3	=3	=3	=3	=3	=3	=3	=3
2.BB-/	2.ryy	2.BB-/	thro-	.	(4F/	thro-	.	(4d\	thro-	.	(4f/	thro-	.
.	.	.	.	.	4E-/	.	.	4e-\	.	.	4g/	.	.
.	.	.	.	.	4D/)	.	.	4f\)	.	.	4a-/)	.	.
!	!	!LO:LB:g=original	!	!	!LO:LB:g=original	!	!	!LO:LB:g=original	!	!	!LO:LB:g=original	!	!
=4	=4	=4	=4	=4	=4	=4	=4	=4	=4	=4	=4	=4	=4
*	*	*	*	*	*	*	*	*2\right	*	*	*	*	*
2C/	2.ryy	2C/	-no	.	2E-/	-no.	.	2e-\	-no	.	2g/	-no	.
!	!	!	!	!	!	!	!	!	!	!	!	!	!LO:DY:b
4r;	.	4r;	.	.	4r;	.	.	4r;	.	.	4r;	.	f
=5||	=5||	=5||	=5||	=5||	=5||	=5||	=5||	=5||	=5||	=5||	=5||	=5||	=5||
!	!	!	!	!	!	!	!LO:DY:b:rj	!	!	!	!	!	!
4BB-/	2.ryy	4BB-/	ex	.	4B-\	ex	f	4a-\	ex	.	4dd\	ex	.
4D/	.	4D/	A-	.	4B-\	A-	.	4a-\	A-	.	4dd\	A-	.
8F\L	.	8F\	-gni	.	8B-\	-gni	.	8a-\	-gni	.	8dd\	-gni	.
8F\J	.	8F\	thro-	.	8B-\	thro-	.	8a-\	thro-	.	8dd\	thro-	.
=6	=6	=6	=6	=6	=6	=6	=6	=6	=6	=6	=6	=6	=6
*2\right	*	*2\right	*	*	*2\right	*	*	*	*	*	*2\right	*	*
2G\	2.ryy	2G\	-no	.	2B-\	-no	.	2g\	-no	.	2ee-\	-no	.
!	!	!	!	!	!	!	!	!	!	!	!	!	!LO:DY:b
4r;	.	4r;	.	.	4r;	.	.	4r;	.	.	4r;	.	p
!LO:LB:g=original	!	!	!	!	!	!	!	!	!	!	!	!	!
=7||	=7||	=7||	=7||	=7||	=7||	=7||	=7||	=7||	=7||	=7||	=7||	=7||	=7||
!	!	!	!	!	!	!	!	!	!	!LO:DY:b:rj	!	!	!
4AA-/	2.ryy	4AA-/	no-	.	2.r	.	.	4a-\	no-	p	4cc\	no-	.
.	.	.	.	.	.	.	.	(8qqg/	.	.	(8qqb-/	.	.
4r	.	4r	.	.	.	.	.	4f\)	.	.	4a-\)	.	.
.	.	.	.	.	.	.	.	(8qqe-/	.	.	(8qqg/	.	.
4A-\	.	4A-\	-bis	.	.	.	.	4d\)	bis	.	4f/)	bis	.
!	!	!LO:LB:g=original	!	!	!	!	!	!	!	!	!LO:LB:g=original	!	!
=8	=8	=8	=8	=8	=8	=8	=8	=8	=8	=8	=8	=8	=8
4G\	2.ryy	4G\	no-	.	4E-/	no-	.	2.r	.	.	4b-\	no-	.
8qqF/	.	(8qqF/	.	.	.	.	.	.	.	.	(8qqa-/	.	.
4E-\	.	4E-\)	.	.	4r	.	.	.	.	.	4g/)	.	.
!	!	!	!	!	!	!	!	!	!	!LO:DY:b	!	!	!
8qqA-/	.	(8qqA-/	.	.	.	.	.	.	.	f	(8qqf/	.	.
4G\	.	4G\)	-bis	.	4E-/	-bis	.	.	.	.	4e-/)	bis	.
!	!	!	!	!	!LO:LB:g=original	!	!	!LO:LB:g=original	!	!	!	!	!
=9	=9	=9	=9	=9	=9	=9	=9	=9	=9	=9	=9	=9	=9
!	!	!	!	!	!	!	!	!	!	!	!	!	!LO:DY:b:rj
4BB-/	2.ryy	4BB-/	Co-	.	4B-\	Co-	.	4f\	Co-	.	4dd\	Co-	f
4F\	.	4F\	-ro-	.	4B-\	-ro-	.	4a-\	-ro-	.	4dd\	-ro-	.
4A-\	.	4A-\	-na	.	4B-\	-na	.	4f\	-na	.	4dd\	-na	.
=10	=10	=10	=10	=10	=10	=10	=10	=10	=10	=10	=10	=10	=10
8.E-\L	2.ryy	8.E-\	Glo-	.	8.B-/	Glo-	.	8.g\	Glo-	.	8.ee-\	Glo-	.
16E-\Jk	.	16E-\	-ri-	.	16G/	-ri-	.	16g\	-ri-	.	16b-\	-ri-	.
4E-\	.	4E-\	-ae	.	4G/	-ae	.	4g\	-ae	.	4b-\	-ae	.
4r	.	4r	.	.	4r	.	.	4r	.	.	4r	.	.
=11	=11	=11	=11	=11	=11	=11	=11	=11	=11	=11	=11	=11	=11
!	!	!	!	!LO:DY:b:rj	!	!	!LO:DY:b:rj	!	!	!	!LO:N:vis=0	!	!
4A-\	2.ryy	4A-\	no-	p	4c\	no-	p	1.r	.	.	1.r	.	.
16qqG/	.	(8qqG/	.	.	(8qqB-/	.	.	.	.	.	.	.	.
!	!	!LO:LB:g=original	!	!	!	!	!	!	!	!	!	!	!
4F\	.	4F\)	.	.	4A-/)	.	.	.	.	.	.	.	.
!	!	!	!	!	!	!	!	!	!	!LO:DY:b	!	!	!LO:DY:b
16qqE-/	.	(8qqE-/	.	.	(8qqG/	.	.	.	.	f	.	.	f
4D/	.	4D/)	bis	.	4F/)	bis	.	.	.	.	.	.	.
=12	=12	=12	=12	=12	=12	=12	=12	=12	=12	=12	=12	=12	=12
*	*	*	*ij	*	*	*	*	*	*	*	*	*	*
4G\	2.ryy	4G\	no-	.	4B-\	no-	.	.	.	.	.	.	.
16qqF/	.	(8qqF/	.	.	(8qqA-/	.	.	.	.	.	.	.	.
4E-\	.	4E-\)	.	.	4G/)	.	.	.	.	.	.	.	.
!	!	!	!	!	!LO:LB:g=original	!	!	!	!	!	!	!	!
8qqA-/	.	(8qqA-/	.	.	(8qqF/	.	.	.	.	.	.	.	.
4G\	.	4G\)	bis	.	4E-/)	bis	.	.	.	.	.	.	.
*	*	*	*Xij	*	*	*	*	*	*	*	*	*	*
!	!	!	!	!	!	!	!	!	!	!	!LO:LB:g=original	!	!
=13	=13	=13	=13	=13	=13	=13	=13	=13	=13	=13	=13	=13	=13
!	!	!	!	!LO:DY:b:rj	!	!	!LO:DY:b:rj	!	!	!	!	!	!
4BB-/	2.ryy	4BB-/	Co-	f	4A-/	Co-	f	4d\	Co-	.	4b-\	Co-	.
4D/	.	4D\	-ro-	.	4A-/	-ro-	.	4f\	-ro-	.	4b-\	-ro-	.
4F/	.	4F\	-na	.	4A-/	-na	.	4d\	-na	.	4b-\	-na	.
!LO:LB:g=original	!	!	!	!	!	!	!	!	!	!	!	!	!
=14	=14	=14	=14	=14	=14	=14	=14	=14	=14	=14	=14	=14	=14
8.BB-/L	2.ryy	8.BB-/	Fi-	.	8.F/	Glo-	.	8.d\	Glo-	.	8.b-/	Glo-	.
16BB-/Jk	.	16BB-/	-li-	.	16F/	-ri-	.	16f\	-ri-	.	16a-/	-ri-	.
4E-\	.	4E-\	-o	.	4B-\	-ae	.	4e-X\	-ae	.	4g/	-ae	.
!	!	!LO:LB:g=original	!	!	!	!	!	!LO:PB:g=original	!	!	!	!	!
4r	.	4r	.	.	4r	.	.	4r	.	.	4r	.	.
=15	=15	=15	=15	=15	=15	=15	=15	=15	=15	=15	=15	=15	=15
2BB-/	2.ryy	2BB-/	Pa-	.	4F/	Pa-	.	(4d\	Pa-	.	2b-\	Pa-	.
.	.	.	.	.	4G-X/	.	.	4e-\)	.	.	.	.	.
4BB-/	.	4BB-/	-tri	.	4F/	-tri	.	(8d\L	-tri	.	4b-\	-tri	.
.	.	.	.	.	.	.	.	8f\J)	.	.	.	.	.
=16	=16	=16	=16	=16	=16	=16	=16	=16	=16	=16	=16	=16	=16
*	*	*	*ij	*	*	*	*	*	*ij	*	*	*ij	*
2BB-/	2.ryy	2BB-/	Pa-	.	(4B-\	Pa-	.	(4g-X\	Pa-	.	2b-\	Pa-	.
.	.	.	.	.	4A-X\)	.	.	4f\)	.	.	.	.	.
!	!	!	!	!	!LO:LB:g=original	!	!	!	!	!	!	!	!
4BB-/	.	4BB-/	-tri	.	4G-X/	-tri	.	4e-\	-tri	.	4b-\	-tri	.
*	*	*	*Xij	*	*	*	*	*	*Xij	*	*	*Xij	*
!	!	!	!	!	!	!	!	!	!	!	!LO:LB:g=original	!	!
=17	=17	=17	=17	=17	=17	=17	=17	=17	=17	=17	=17	=17	=17
4BBn/	2.ryy	4BBn/	si-	.	4G-y/	si-	.	4e-\	si-	.	4b-\	si-	.
4AAn/	.	4AAn/	-mul-	.	4G-/	-mul-	.	4e-\	-mul-	.	4an\	-mul-	.
4BB-X/	.	4BB-X/	-que	.	4G-/	-que	.	4e-\	-que	.	4b-\	-que	.
=18	=18	=18	=18	=18	=18	=18	=18	=18	=18	=18	=18	=18	=18
8.C-X/L	2.ryy	8.C-X/	Fi-	.	8.G-y/	Fi-	.	8.e-\	Fi-	.	8.b-\	Fi-	.
16BB-X/Jk	.	16BB-X/	-li-	.	16F/	-li-	.	16d\	-li-	.	16b-\	-li-	.
4BB-/	.	4BB-/	-o	.	4F/	-o.	.	4d\	-o	.	4b-\	-o	.
!LO:TX:t=P:problem=kreska taktowa pojedyncza	!	!LO:PB:g=original	!	!	!LO:TX:t=P:problem=wykreślony fragment	!	!	!	!	!	!	!	!
4r;	.	4r;	.	.	4r;	.	.	4r;	.	.	4r;	.	.
!	!	!	!	!	!LO:PB:g=original	!	!	!LO:LB:g=original	!	!	!	!	!
=19||	=19||	=19||	=19||	=19||	=19||	=19||	=19||	=19||	=19||	=19||	=19||	=19||	=19||
8.G\L	2.ryy	8.G\	ti-	.	8.B-X\	ti-	.	8.g\	ti-	.	8.b-\	ti-	.
16E-\Jk	.	16E-\	-bi-	.	16B-\	-bi-	.	16g\	-bi-	.	16b-\	-bi-	.
4BB-/	.	4BB-/	-que	.	4B-\	-que	.	4g\	-que	.	4ee-\	-que	.
4r	.	4r	.	.	4r	.	.	4r	.	.	4r	.	.
!LO:LB:g=original	!	!	!	!	!	!	!	!	!	!	!LO:PB:g=original	!	!
=20	=20	=20	=20	=20	=20	=20	=20	=20	=20	=20	=20	=20	=20
*	*	*	*ij	*	*	*ij	*	*	*ij	*	*	*	*
8.A-X\L	2.ryy	8.A-X\	ti-	.	8.B-\	ti-	.	8.f\	ti-	.	8.dd\	ti-	.
16F\Jk	.	16F\	-bi-	.	16B-\	-bi-	.	16f\	-bi-	.	16dd\	-bi-	.
4BB-/	.	4BB-/	-que	.	4B-\	-que	.	4f\	-que	.	4dd\	-que	.
4r	.	4r	.	.	4r	.	.	4r	.	.	4r	.	.
*	*	*	*Xij	*	*	*Xij	*	*	*Xij	*	*	*	*
=21	=21	=21	=21	=21	=21	=21	=21	=21	=21	=21	=21	=21	=21
2E-\	2.ryy	2E-\	San-	.	2B-\	San-	.	2g\	San-	.	(4ee-\	San-	.
.	.	.	.	.	.	.	.	.	.	.	4dd-X\)	.	.
4En\	.	4En\	-cte	.	4B-\	-cte	.	4g\	-cte	.	4dd-\	-cte	.
!	!	!	!	!	!LO:LB:g=original	!	!	!	!	!	!	!	!
=22	=22	=22	=22	=22	=22	=22	=22	=22	=22	=22	=22	=22	=22
8.F\L	2.ryy	8.F\	spi-	.	8.A-X/	spi-	.	8.f\	spi-	.	8.cc\	spi-	.
16F\Jk	.	16F\	-ri-	.	16F/	-ri-	.	16f\	-ri-	.	16cc\	-ri-	.
!	!	!LO:LB:g=original	!	!	!	!	!	!	!	!	!	!	!
4F\	.	4F\	-tus	.	4C/	-tus	.	4f\	-tus	.	4cc\	-tus	.
!LO:TX:t=P:problem=brak znaku początku repetycji	!	!LO:TX:t=P:problem=brak znaku początku repetycji	!	!	!	!LO:LB:g=original	!	!	!	!	!	!	!
4r	.	4r	.	.	4r	.	.	4r	.	.	4r	.	.
=23!|:	=23!|:	=23!|:	=23!|:	=23!|:	=23!|:	=23!|:	=23!|:	=23!|:	=23!|:	=23!|:	=23!|:	=23!|:	=23!|:
*>B	*>B	*>B	*>B	*>B	*>B	*>B	*>B	*>B	*>B	*>B	*>B	*>B	*>B
!	!	!	!	!LO:DY:b:rj	!	!	!LO:DY:b:rj	!	!	!LO:DY:b:rj	!	!	!LO:DY:b:rj
8E-\L	2.ryy	8E-\	si-	p	8G/	si-	p	8g\	si-	p	8b-\	si-	p
8E-\	.	8E-\	-cut	.	8G/	-cut	.	8g\	-cut	.	8b-\	-cut	.
!	!	!	!	!	!	!	!	!	!	!	!LO:LB:g=original	!	!
8E-\	.	8E-\	fŭ-	.	8G/	fŭ-	.	8g\	fŭ-	.	8b-\	fŭ-	.
8E-\J	.	8E-\	-it	.	8G/	-it	.	8g\	-it	.	8b-\	-it	.
!	!	!	!	!LO:DY:b:rj	!	!	!LO:DY:b:rj	!	!	!LO:DY:b:rj	!	!	!LO:DY:b:rj
4En\	.	4En\	sit	f	4G/	sit	f	4b-\	sit	f	4dd-X\	sit	f
=24	=24	=24	=24	=24	=24	=24	=24	=24	=24	=24	=24	=24	=24
4.F\	2.ryy	4.F\	ju-	.	4.F/	ju-	.	4.a-\	ju-	.	4.cc\	ju-	.
8C/	.	8C/	-gi-	.	8En/	-gi-	.	8g\	-gi-	.	8b-\	-gi-	.
4FF/	.	4FF/	-ter	.	4F/	-ter	.	4f\	-ter	.	4a-\	-ter	.
!LO:LB:g=original	!	!	!	!	!LO:LB:g=original	!	!	!	!	!	!	!	!
=25	=25	=25	=25	=25	=25	=25	=25	=25	=25	=25	=25	=25	=25
!	!	!	!	!	!	!	!	!	!	!LO:DY:b:rj	!	!	!LO:DY:b:rj
8BB-/L	2.ryy	8BB-/	si-	.	8B-\	si-	.	8a-\	si-	p	8ddn\	si-	p
8D/	.	8D/	-cut	.	8B-\	-cut	.	8a-\	-cut	.	8dd\	-cut	.
!	!	!LO:LB:g=original	!	!	!	!	!	!LO:LB:g=original	!	!	!	!	!
8BB-/	.	8BB-/	fŭ-	.	8B-\	fŭ-	.	8a-\	fu-	.	8dd\	fŭ-	.
8D/J	.	8D/	-it	.	8B-\	-it	.	8a-\	-it	.	8dd\	-it	.
!	!	!	!	!	!	!	!LO:DY:b:rj	!	!	!LO:DY:b:rj	!	!	!LO:DY:b:rj
4BB-/	.	4BB-/	sit	.	4d\	sit	f	4a-\	sit	f	4ff\	sit	f
!	!	!	!	!	!	!	!	!	!	!	!LO:LB:g=original	!	!
=26	=26	=26	=26	=26	=26	=26	=26	=26	=26	=26	=26	=26	=26
4.E-\	2.ryy	4.E-\	ju-	.	4.B-\	ju-	.	4.g\	ju-	.	4.ee-\	ju-	.
8BB-/	.	8BB-/	-gi-	.	8B-\	-gi-	.	8f\	-gi-	.	8dd\	-gi-	.
4E-\	.	4E-\	-ter	.	4B-\	-ter	.	4g\	-ter	.	4ee-\	-ter	.
=27	=27	=27	=27	=27	=27	=27	=27	=27	=27	=27	=27	=27	=27
8.A-X\L	2.ryy	8.A-X\L	sae-	.	4.B-\	sae-	.	4.a-\	sae-	.	4dd\	sae-	.
16G\Jk	.	16G\Jk	.	.	.	.	.	.	.	.	.	.	.
8.F\L	.	8.F\L	-cu-	.	.	.	.	.	.	.	4dd\	-cu-	.
.	.	.	.	.	8B-\	-cu-	.	8a-\	-cu-	.	.	.	.
16E-\Jk	.	16E-\Jk	.	.	.	.	.	.	.	.	.	.	.
8.D/L	.	8.D/L	-lum	.	4B-\	-lum	.	4a-\	-lum	.	4dd\	-lum	.
16BB-/Jk	.	16BB-/Jk	.	.	.	.	.	.	.	.	.	.	.
!	!	!	!	!	!LO:LB:g=original	!	!	!	!	!	!	!	!
=28	=28	=28	=28	=28	=28	=28	=28	=28	=28	=28	=28	=28	=28
4E-\	2.ryy	4E-\	per	.	4G-X/	per	.	4e-\	per	.	4b-\	per	.
!	!	!LO:LB:g=original	!	!	!	!	!	!	!	!	!	!	!
4BB-/	.	4BB-/	o-	.	4G-/	o-	.	4e-\	o-	.	4b-\	o-	.
4BBn/	.	4BBn/	-mne	.	4G-/	-mne	.	4e-\	-mne	.	4an\	-mne	.
!	!	!	!	!	!	!	!	!LO:LB:g=original	!	!	!	!	!
=29	=29	=29	=29	=29	=29	=29	=29	=29	=29	=29	=29	=29	=29
8.BB-X/L	2.ryy	8.BB-X/	Glo-	.	8.F/	Glo-	.	8.d\	Glo-	.	8.b-\	Glo-	.
16BB-/Jk	.	16BB-/	-ri-	.	16F/	-ri-	.	16d\	-ri-	.	16b-\	-ri-	.
4BB-/	.	4BB-/	-a	.	4F/	-a	.	4d\	-a	.	4b-\	-a	.
4r	.	4r	.	.	4r	.	.	4r	.	.	4r	.	.
!LO:LB:g=original	!	!	!	!	!	!	!	!	!	!	!LO:LB:g=original	!	!
=30	=30	=30	=30	=30	=30	=30	=30	=30	=30	=30	=30	=30	=30
*	*	*	*ij	*	*	*ij	*	*	*ij	*	*	*ij	*
8.AAn/L	2.ryy	8.AAn/	Glo-	.	8.F/	Glo-	.	8.e-\	Glo-	.	8.cc\	Glo-	.
16AA/Jk	.	16AA/	-ri-	.	16F/	-ri-	.	16e-\	-ri-	.	16cc\	-ri-	.
4AA/	.	4AA/	-a	.	4F/	-a	.	4e-\	-a	.	4cc\	-a	.
4r	.	4r	.	.	4r	.	.	4r	.	.	4r	.	.
*	*	*	*Xij	*	*	*Xij	*	*	*	*	*	*	*
=31	=31	=31	=31	=31	=31	=31	=31	=31	=31	=31	=31	=31	=31
8.AA-X/L	2.ryy	8.AA-X/	Glo-	.	8.A-X/	Glo-	.	8.f\	Glo-	.	8.dd\	Glo-	.
!	!	!LO:LB:g=original	!	!	!LO:LB:g=original	!	!	!	!	!	!	!	!
16AA-/Jk	.	16AA-/	-ri-	.	16A-/	-ri-	.	16f\	-ri-	.	16dd\	-ri-	.
4AA-/	.	4AA-/	-a	.	4A-/	-a	.	4f\	-a	.	4dd\	-	.
4r	.	4r	.	.	4r	.	.	4r	.	.	4r	.	.
*	*	*	*	*	*	*	*	*	*Xij	*	*	*Xij	*
=32	=32	=32	=32	=32	=32	=32	=32	=32	=32	=32	=32	=32	=32
2.r;	2.ryy	2.r;	.	.	2.r;	.	.	2.r;	.	.	4ee-;\	A-	.
.	.	.	.	.	.	.	.	.	.	.	16qqe-|/LLL	.	.
.	.	.	.	.	.	.	.	.	.	.	(32qqf/L	.	.
.	.	.	.	.	.	.	.	.	.	.	32qqg/	.	.
.	.	.	.	.	.	.	.	.	.	.	32qqa-/	.	.
.	.	.	.	.	.	.	.	.	.	.	32qqb-/	.	.
.	.	.	.	.	.	.	.	.	.	.	32qqcc/	.	.
.	.	.	.	.	.	.	.	.	.	.	32qqdd/	.	.
.	.	.	.	.	.	.	.	.	.	.	32qqee-/	.	.
.	.	.	.	.	.	.	.	.	.	.	32qqff/JJJJ	.	.
.	.	.	.	.	.	.	.	.	.	.	8qqgg/LL	.	.
.	.	.	.	.	.	.	.	.	.	.	8qqee-/	.	.
.	.	.	.	.	.	.	.	.	.	.	8qqgg/	.	.
.	.	.	.	.	.	.	.	.	.	.	8qqee-/	.	.
.	.	.	.	.	.	.	.	.	.	.	8qqb-/JJ)	.	.
.	.	.	.	.	.	.	.	.	.	.	8g/	-men	.
.	.	.	.	.	.	.	.	.	.	.	8r	.	.
.	.	.	.	.	.	.	.	.	.	.	4ryy	.	.
!	!	!	!	!	!	!	!	!LO:LB:g=original	!	!	!LO:LB:g=original	!	!
=33	=33	=33	=33	=33	=33	=33	=33	=33	=33	=33	=33	=33	=33
4E-\	2.ryy	(4E-/	A-	.	2B-\	A-	.	2g\	A-	.	2ee-\	A-	.
4BB-/	.	4BB-/)	.	.	.	.	.	.	.	.	.	.	.
4C/	.	4C/	-men	.	4c\	-men	.	4a-\	-men	.	4ee-\	-men	.
=34	=34	=34	=34	=34	=34	=34	=34	=34	=34	=34	=34	=34	=34
*	*	*	*	*	*	*	*	*	*	*	*	*ij	*
4AA-/	2.ryy	4AA-/	A-	.	(2B-\	A-	.	4g\	A-	.	(2ee-\	A-	.
4FF/	.	4FF/	.	.	.	.	.	2f\	.	.	.	.	.
4BB-/	.	4BB-/	.	.	4A-\)	.	.	.	.	.	4dd\)	.	.
=35	=35	=35	=35	=35	=35	=35	=35	=35	=35	=35	=35	=35	=35
2E-\	2.ryy	2E-\	-men	.	2B-\	-men	.	2g\	-men	.	2ee-\	-men	.
*	*	*	*	*	*	*	*	*	*	*	*	*Xij	*
!LO:TX:t=P:problem=brak znaku zakończenia repetycji	!	!LO:TX:t=P:problem=brak znaku zakończenia repetycji	!	!	!	!	!	!	!	!	!	!	!
4r	.	4r	.	.	4r	.	.	4r	.	.	4r	.	.
=36:|!	=36:|!	=36:|!	=36:|!	=36:|!	=36:|!	=36:|!	=36:|!	=36:|!	=36:|!	=36:|!	=36:|!	=36:|!	=36:|!
*>C	*>C	*>C	*>C	*>C	*>C	*>C	*>C	*>C	*>C	*>C	*>C	*>C	*>C
!	!	!	!	!	!	!	!	!LO:TX:t=P:problem=fragment dopisany [alternatywna wersja zakończenia]	!	!	!	!	!
2.ryy	2.ryy	2.ryy	.	.	2.ryy	.	.	2g;\	A-	.	2.ryy	.	.
.	.	.	.	.	.	.	.	(32f\LLL	.	.	.	.	.
.	.	.	.	.	.	.	.	32a-X\	.	.	.	.	.
.	.	.	.	.	.	.	.	32g\	.	.	.	.	.
.	.	.	.	.	.	.	.	32f\JJJ)	.	.	.	.	.
.	.	.	.	.	.	.	.	8e-|\	-men	.	.	.	.
=37	=37	=37	=37	=37	=37	=37	=37	=37	=37	=37	=37	=37	=37
2.ryy	2.ryy	2.ryy	.	.	2.ryy	.	.	2e-;\	A-	.	2.ryy	.	.
*	*	*	*	*	*	*	*	*Xtuplet	*	*	*	*	*
*	*	*	*	*	*	*	*	*rscale:1/2	*	*	*	*	*
.	.	.	.	.	.	.	.	24f\LL	-[[men]]-	.	.	.	.
.	.	.	.	.	.	.	.	24g\	.	.	.	.	.
.	.	.	.	.	.	.	.	24a-\	.	.	.	.	.
.	.	.	.	.	.	.	.	24b-\	.	.	.	.	.
.	.	.	.	.	.	.	.	24cc\	.	.	.	.	.
.	.	.	.	.	.	.	.	24dd\JJ	.	.	.	.	.
=38	=38	=38	=38	=38	=38	=38	=38	=38-	=38	=38	=38	=38	=38
*	*	*	*	*	*	*	*	*rscale:1	*	*	*	*	*
2.ryy	2.ryy	2.ryy	.	.	2.ryy	.	.	(8.b-\L	.	.	2.ryy	.	.
.	.	.	.	.	.	.	.	16g\Jk)	.	.	.	.	.
.	.	.	.	.	.	.	.	(8.b-\L	.	.	.	.	.
.	.	.	.	.	.	.	.	16g\Jk)	.	.	.	.	.
.	.	.	.	.	.	.	.	(8.g\	.	.	.	.	.
.	.	.	.	.	.	.	.	16e-\)	-men	.	.	.	.
==	==	==	==	==	==	==	==	==	==	==	==	==	==
*-	*-	*-	*-	*-	*-	*-	*-	*-	*-	*-	*-	*-	*-
!!!system-decoration: [(s1,s2,s3,s4)][(s5,s6)]
!!!RDF**kern: | = vertical stroke
!!!RDF**dynam: p = "po"
!!!ENC: Katarzyna Serwa
!!!END: 2021-08-05
!!!ENC: Katarzyna Serwa
!!!END: 2021-07-08
!!!YEC: Copyright 2022 Narodowy Instytut Fryderyka Chopina (https://polishscores.org)
!!!YEM: License CC-BY-4.0 (https://creativecommons.org/licenses/by/4.0)
